X:197
T:Money musk
T:Monymusk
R:Reel
O:Ireland, Scotland
B:Kerr's Second p14 (as a Strathspey...)
B:Fiddler's Fakebook
B:NE Fiddler's- (3 pt reel)
S:My arrangement from various sources
Z:Transcription, arrangement, chords:Mike Long
M:C|
L:1/8
K:A
f|\
"A"eAcA "D"eAdf|"A"eAcA "E"Bcdf|"A"eAcA cdea|"D"fd"E"Be "A"cAA:|
|:g|\
"A"aefa eaca|"A"aedb "E"caBg|"A"aefa eaca|"D"fd"E"Be "A"cAA:|
